resources/icon/plus-circle.svg

<?xml version="1.0" encoding="utf-8"?>
<!-- Generated by IcoMoon.io -->
<!DOCTYPE svg PUBLIC "-//W3C//DTD SVG 1.1//EN" "http://www.w3.org/Graphics/SVG/1.1/DTD/svg11.dtd">
<svg version="1.1" xmlns="http://www.w3.org/2000/svg" xmlns:xlink="http://www.w3.org/1999/xlink" width="20" height="20" viewBox="0 0 20 20">
<path fill="#000000" d="M16.218 3.782c-1.794-1.794-4.18-2.782-6.718-2.782s-4.923 0.988-6.718 2.782-2.782 4.18-2.782 6.717 0.988 4.923 2.782 6.718 4.18 2.782 6.718 2.782 4.923-0.988 6.718-2.782 2.782-4.18 2.782-6.718-0.988-4.923-2.782-6.717zM9.5 19c-4.687 0-8.5-3.813-8.5-8.5s3.813-8.5 8.5-8.5c4.687 0 8.5 3.813 8.5 8.5s-3.813 8.5-8.5 8.5z"></path>
<path fill="#000000" d="M15.5 10h-5.5v-5.5c0-0.276-0.224-0.5-0.5-0.5s-0.5 0.224-0.5 0.5v5.5h-5.5c-0.276 0-0.5 0.224-0.5 0.5s0.224 0.5 0.5 0.5h5.5v5.5c0 0.276 0.224 0.5 0.5 0.5s0.5-0.224 0.5-0.5v-5.5h5.5c0.276 0 0.5-0.224 0.5-0.5s-0.224-0.5-0.5-0.5z"></path>
</svg>

<svg xmlns="http://www.w3.org/2000/svg" width="20" height="20"><path d="M16.218 3.782C14.424 1.988 12.038 1 9.5 1s-4.923.988-6.718 2.782S0 7.962 0 10.499s.988 4.923 2.782 6.718 4.18 2.782 6.718 2.782 4.923-.988 6.718-2.782S19 13.037 19 10.499s-.988-4.923-2.782-6.717zM9.5 19C4.813 19 1 15.187 1 10.5S4.813 2 9.5 2c4.687 0 8.5 3.813 8.5 8.5S14.187 19 9.5 19z"/><path d="M15.5 10H10V4.5a.5.5 0 00-1 0V10H3.5a.5.5 0 000 1H9v5.5a.5.5 0 001 0V11h5.5a.5.5 0 000-1z"/></svg>
